InvenTree/inventree.svg

<?xml version="1.0" encoding="UTF-8" standalone="no"?>
<!-- Created with Inkscape (http://www.inkscape.org/) -->

<svg
   xmlns:dc="http://purl.org/dc/elements/1.1/"
   xmlns:cc="http://creativecommons.org/ns#"
   xmlns:rdf="http://www.w3.org/1999/02/22-rdf-syntax-ns#"
   xmlns:svg="http://www.w3.org/2000/svg"
   xmlns="http://www.w3.org/2000/svg"
   xmlns:sodipodi="http://sodipodi.sourceforge.net/DTD/sodipodi-0.dtd"
   xmlns:inkscape="http://www.inkscape.org/namespaces/inkscape"
   sodipodi:docname="inventree.svg"
   inkscape:version="0.92.4 (5da689c313, 2019-01-14)"
   version="1.1"
   id="svg2"
   viewBox="0 0 400 400.00001"
   height="400"
   width="400"
   inkscape:export-filename="C:\inventree\images\logo\inventree.png"
   inkscape:export-xdpi="499.92001"
   inkscape:export-ydpi="499.92001">
  <sodipodi:namedview
     inkscape:window-maximized="1"
     inkscape:window-y="-8"
     inkscape:window-x="-8"
     inkscape:window-height="1017"
     inkscape:window-width="1920"
     showgrid="false"
     inkscape:current-layer="g2907"
     inkscape:document-units="px"
     inkscape:cy="426.62472"
     inkscape:cx="-960.58794"
     inkscape:zoom="0.31819805"
     inkscape:pageshadow="2"
     inkscape:pageopacity="0.0"
     borderopacity="1.0"
     bordercolor="#666666"
     pagecolor="#ffffff"
     id="base"
     units="px" />
  <defs
     id="defs4">
    <inkscape:path-effect
       effect="skeletal"
       id="path-effect4158"
       is_visible="true"
       pattern="m 446.48742,503.05596 1,0"
       copytype="single_stretched"
       prop_scale="1"
       scale_y_rel="false"
       spacing="0"
       normal_offset="0"
       tang_offset="0"
       prop_units="false"
       vertical_pattern="false"
       fuse_tolerance="0"
       pattern-nodetypes="cc" />
  </defs>
  <metadata
     id="metadata7">
    <rdf:RDF>
      <cc:Work
         rdf:about="">
        <dc:format>image/svg+xml</dc:format>
        <dc:type
           rdf:resource="http://purl.org/dc/dcmitype/StillImage" />
        <dc:title />
      </cc:Work>
    </rdf:RDF>
  </metadata>
  <g
     inkscape:label="Layer 1"
     inkscape:groupmode="layer"
     id="layer1"
     transform="translate(0,-652.36216)">
    <g
       id="g2907"
       transform="matrix(1.7132796,0,0,1.7132796,460.05136,236.12365)">
      <g
         id="g5713">
        <path
           sodipodi:nodetypes="ccccc"
           inkscape:connector-curvature="0"
           id="path4896"
           d="m -151.78571,359.62883 v 112.76373 l 97.068507,-56.04253 V 303.14815 Z"
           style="fill:#ddbc91;fill-opacity:1;stroke:#000000;stroke-width:1.5622561;stroke-linecap:round;stroke-linejoin:round;stroke-miterlimit:4;stroke-dasharray:none;stroke-opacity:1" />
        <path
           style="fill:#d9b383;fill-opacity:1;stroke:#000000;stroke-width:1.5622561;stroke-linecap:round;stroke-linejoin:round;stroke-miterlimit:4;stroke-dasharray:none;stroke-opacity:1"
           d="m -151.78571,359.62883 v 112.76373 l -97.0685,-56.04253 V 303.14815 Z"
           id="path4898"
           inkscape:connector-curvature="0"
           sodipodi:nodetypes="ccccc" />
        <path
           sodipodi:nodetypes="ccccc"
           inkscape:connector-curvature="0"
           id="path4900"
           d="m -54.717203,303.14815 -97.068507,56.48068 -97.0685,-56.48068 97.0685,-56.17354 z"
           style="fill:#ddbc91;fill-opacity:1;stroke:#000000;stroke-width:1.5622561;stroke-linecap:round;stroke-linejoin:round;stroke-miterlimit:4;stroke-dasharray:none;stroke-opacity:1" />
        <g
           id="g4916"
           transform="matrix(1.4761476,0,0,1.4761476,-218.87903,128.54472)"
           style="opacity:1;vector-effect:none;fill:#f3f4e4;fill-opacity:1;stroke:#000000;stroke-width:1.05833328;stroke-linecap:round;stroke-linejoin:round;stroke-miterlimit:4;stroke-dasharray:none;stroke-dashoffset:0;stroke-opacity:1">
          <path
             id="path4910"
             transform="matrix(0.40703466,0,0,0.40703466,-35.955294,75.175547)"
             d="M 78.833984,129.19141 V 270.49609 L 200,340.45117 321.16602,270.49609 V 129.19141 L 200,199.69336 Z"
             style="vector-effect:none;fill:#f3f4e4;fill-opacity:1;stroke:#000000;stroke-width:2.600106;stroke-linecap:round;stroke-linejoin:round;stroke-miterlimit:4;stroke-dasharray:none;stroke-dashoffset:0;stroke-opacity:1"
             inkscape:connector-curvature="0" />
          <path
             style="vector-effect:none;fill:#f3f4e4;fill-opacity:1;stroke:#000000;stroke-width:1.05833328;stroke-linecap:round;stroke-linejoin:round;stroke-miterlimit:4;stroke-dasharray:none;stroke-dashoffset:0;stroke-opacity:1"
             d="M 94.770135,127.76116 45.451638,156.45782 -3.8668589,127.76116 45.451638,99.220548 Z"
             id="path4914"
             inkscape:connector-curvature="0"
             sodipodi:nodetypes="ccccc" />
        </g>
        <path
           style="opacity:1;vector-effect:none;fill:#d9dbbc;fill-opacity:1;stroke:#000000;stroke-width:1.56225622;stroke-linecap:round;stroke-linejoin:round;stroke-miterlimit:4;stroke-dasharray:none;stroke-dashoffset:0;stroke-opacity:1"
           d="m -151.7857,275.0089 v 84.49065 l -72.80137,42.54091 v -84.90142 z"
           id="path4918"
           inkscape:connector-curvature="0" />
        <path
           inkscape:connector-curvature="0"
           id="path4920"
           d="m -151.7857,275.0089 v 84.49065 l 72.801373,42.54091 v -84.90142 z"
           style="opacity:1;vector-effect:none;fill:#eaeccf;fill-opacity:1;stroke:#000000;stroke-width:1.56225622;stroke-linecap:round;stroke-linejoin:round;stroke-miterlimit:4;stroke-dasharray:none;stroke-dashoffset:0;stroke-opacity:1" />
        <g
           style="opacity:1;vector-effect:none;fill:#90a8d8;fill-opacity:1;stroke:#000000;stroke-width:1.58749998;stroke-linecap:butt;stroke-linejoin:miter;stroke-miterlimit:4;stroke-dasharray:none;stroke-dashoffset:0;stroke-opacity:1"
           transform="matrix(0.9840984,0,0,0.9840984,-196.5146,205.65597)"
           id="g4928">
          <path
             sodipodi:nodetypes="ccccc"
             inkscape:connector-curvature="0"
             id="path4922"
             d="m 45.451638,156.45782 v 57.29292 l 49.318497,-28.47405 v -57.51553 z"
             style="vector-effect:none;fill:#90a8d8;fill-opacity:1;stroke:#000000;stroke-width:1.58749998;stroke-linecap:round;stroke-linejoin:round;stroke-miterlimit:4;stroke-dasharray:none;stroke-dashoffset:0;stroke-opacity:1" />
          <path
             style="vector-effect:none;fill:#90a8d8;fill-opacity:1;stroke:#000000;stroke-width:1.58749998;stroke-linecap:round;stroke-linejoin:round;stroke-miterlimit:4;stroke-dasharray:none;stroke-dashoffset:0;stroke-opacity:1"
             d="m 45.451638,156.45782 v 57.29292 L -3.866859,185.27669 v -57.51553 z"
             id="path4924"
             inkscape:connector-curvature="0"
             sodipodi:nodetypes="ccccc" />
          <path
             sodipodi:nodetypes="ccccc"
             inkscape:connector-curvature="0"
             id="path4926"
             d="M 94.770135,127.76116 45.451638,156.45782 -3.8668589,127.76116 45.451638,99.220548 Z"
             style="vector-effect:none;fill:#90a8d8;fill-opacity:1;stroke:#000000;stroke-width:1.58749998;stroke-linecap:round;stroke-linejoin:round;stroke-miterlimit:4;stroke-dasharray:none;stroke-dashoffset:0;stroke-opacity:1" />
        </g>
      </g>
      <g
         transform="translate(0,102.8232)"
         id="g5856"
         inkscape:export-xdpi="499.92001"
         inkscape:export-ydpi="499.92001">
        <path
           style="opacity:1;vector-effect:none;fill:#90a8d8;fill-opacity:1;stroke:#000000;stroke-width:1.7510277;stroke-linecap:round;stroke-linejoin:round;stroke-miterlimit:4;stroke-dasharray:none;stroke-dashoffset:0;stroke-opacity:1"
           d="m -587.59709,399.25327 v 126.38928 l 108.79755,-62.8143 V 335.94789 Z"
           id="path5850"
           inkscape:connector-curvature="0"
           sodipodi:nodetypes="ccccc" />
        <path
           sodipodi:nodetypes="ccccc"
           inkscape:connector-curvature="0"
           id="path5852"
           d="m -587.59709,399.25327 v 126.38928 l -108.79754,-62.8143 V 335.94789 Z"
           style="opacity:1;vector-effect:none;fill:#90a8d8;fill-opacity:1;stroke:#000000;stroke-width:1.7510277;stroke-linecap:round;stroke-linejoin:round;stroke-miterlimit:4;stroke-dasharray:none;stroke-dashoffset:0;stroke-opacity:1" />
        <path
           style="opacity:1;vector-effect:none;fill:#90a8d8;fill-opacity:1;stroke:#000000;stroke-width:1.7510277;stroke-linecap:round;stroke-linejoin:round;stroke-miterlimit:4;stroke-dasharray:none;stroke-dashoffset:0;stroke-opacity:1"
           d="m -478.79954,335.94789 -108.79755,63.30538 -108.79754,-63.30538 108.79754,-62.96113 z"
           id="path5854"
           inkscape:connector-curvature="0"
           sodipodi:nodetypes="ccccc" />
      </g>
      <g
         id="g5848"
         transform="translate(0,-23.56608)"
         inkscape:export-xdpi="499.92001"
         inkscape:export-ydpi="499.92001">
        <path
           sodipodi:nodetypes="ccccc"
           inkscape:connector-curvature="0"
           id="path5803"
           d="m -587.59709,399.25327 v 126.38928 l 108.79755,-62.8143 V 335.94789 Z"
           style="opacity:1;vector-effect:none;fill:#90a8d8;fill-opacity:1;stroke:#000000;stroke-width:1.7510277;stroke-linecap:round;stroke-linejoin:round;stroke-miterlimit:4;stroke-dasharray:none;stroke-dashoffset:0;stroke-opacity:1" />
        <path
           style="opacity:1;vector-effect:none;fill:#90a8d8;fill-opacity:1;stroke:#000000;stroke-width:1.7510277;stroke-linecap:round;stroke-linejoin:round;stroke-miterlimit:4;stroke-dasharray:none;stroke-dashoffset:0;stroke-opacity:1"
           d="m -587.59709,399.25327 v 126.38928 l -108.79754,-62.8143 V 335.94789 Z"
           id="path5805"
           inkscape:connector-curvature="0"
           sodipodi:nodetypes="ccccc" />
        <path
           sodipodi:nodetypes="ccccc"
           inkscape:connector-curvature="0"
           id="path5807"
           d="m -478.79954,335.94789 -108.79755,63.30538 -108.79754,-63.30538 108.79754,-62.96113 z"
           style="opacity:1;vector-effect:none;fill:#90a8d8;fill-opacity:1;stroke:#000000;stroke-width:1.7510277;stroke-linecap:round;stroke-linejoin:round;stroke-miterlimit:4;stroke-dasharray:none;stroke-dashoffset:0;stroke-opacity:1" />
      </g>
      <path
         sodipodi:nodetypes="ccccc"
         inkscape:connector-curvature="0"
         id="path4649"
         d="m -587.59709,249.29791 v 126.38928 l 108.79755,-62.8143 V 185.99253 Z"
         style="fill:#ddbc91;fill-opacity:1;stroke:#000000;stroke-width:1.75102758;stroke-linecap:round;stroke-linejoin:round;stroke-miterlimit:4;stroke-dasharray:none;stroke-opacity:1"
         inkscape:export-xdpi="499.92001"
         inkscape:export-ydpi="499.92001" />
      <path
         style="opacity:1;vector-effect:none;fill:#d9b383;fill-opacity:1;stroke:#000000;stroke-width:1.5622561;stroke-linecap:round;stroke-linejoin:round;stroke-miterlimit:4;stroke-dasharray:none;stroke-dashoffset:0;stroke-opacity:1"
         d="m -587.59709,249.29791 v 126.38928 l -108.79754,-62.8143 V 185.99253 Z"
         id="path4651"
         inkscape:connector-curvature="0"
         sodipodi:nodetypes="ccccc"
         inkscape:export-xdpi="499.92001"
         inkscape:export-ydpi="499.92001" />
      <path
         sodipodi:nodetypes="ccccc"
         inkscape:connector-curvature="0"
         id="path4653"
         d="m -478.79954,185.99253 -108.79755,63.30538 -108.79754,-63.30538 108.79754,-62.96113 z"
         style="fill:#ddbc91;fill-opacity:1;stroke:#000000;stroke-width:1.75102758;stroke-linecap:round;stroke-linejoin:round;stroke-miterlimit:4;stroke-dasharray:none;stroke-opacity:1"
         inkscape:export-xdpi="499.92001"
         inkscape:export-ydpi="499.92001" />
      <g
         id="g4703"
         transform="matrix(1.6545144,0,0,1.6545144,-662.79747,-9.7087)"
         style="opacity:1;vector-effect:none;fill:#f3f4e4;fill-opacity:1;stroke:#000000;stroke-width:1.05833328;stroke-linecap:round;stroke-linejoin:round;stroke-miterlimit:4;stroke-dasharray:none;stroke-dashoffset:0;stroke-opacity:1"
         inkscape:export-xdpi="499.92001"
         inkscape:export-ydpi="499.92001">
        <path
           inkscape:connector-curvature="0"
           style="vector-effect:none;fill:#f3f4e4;fill-opacity:1;stroke:#000000;stroke-width:3;stroke-linecap:round;stroke-linejoin:round;stroke-miterlimit:4;stroke-dasharray:none;stroke-dashoffset:0;stroke-opacity:1"
           d="m -713.3418,130.54492 v 163.03516 l 139.79883,80.71484 139.80078,-80.71484 V 130.54492 l -139.80078,81.3457 z"
           transform="matrix(0.35277777,0,0,0.35277777,247.78456,81.707826)"
           id="path4697" />
        <path
           style="vector-effect:none;fill:#f3f4e4;fill-opacity:1;stroke:#000000;stroke-width:1.05833328;stroke-linecap:round;stroke-linejoin:round;stroke-miterlimit:4;stroke-dasharray:none;stroke-dashoffset:0;stroke-opacity:1"
           d="M 94.770135,127.76116 45.451638,156.45782 -3.8668589,127.76116 45.451638,99.220548 Z"
           id="path4701"
           inkscape:connector-curvature="0"
           sodipodi:nodetypes="ccccc" />
      </g>
      <path
         style="opacity:1;vector-effect:none;fill:#d9dbbc;fill-opacity:1;stroke:#000000;stroke-width:1.7510277;stroke-linecap:round;stroke-linejoin:round;stroke-miterlimit:4;stroke-dasharray:none;stroke-dashoffset:0;stroke-opacity:1"
         d="m -587.59709,154.45314 v 94.69988 l -81.59816,47.68125 v -95.1603 z"
         id="path4788"
         inkscape:connector-curvature="0"
         inkscape:export-xdpi="499.92001"
         inkscape:export-ydpi="499.92001" />
      <path
         inkscape:connector-curvature="0"
         id="path4830"
         d="m -587.59709,154.45314 v 94.69988 l 81.59817,47.68125 v -95.1603 z"
         style="opacity:1;vector-effect:none;fill:#eaeccf;fill-opacity:1;stroke:#000000;stroke-width:1.7510277;stroke-linecap:round;stroke-linejoin:round;stroke-miterlimit:4;stroke-dasharray:none;stroke-dashoffset:0;stroke-opacity:1"
         inkscape:export-xdpi="499.92001"
         inkscape:export-ydpi="499.92001" />
      <g
         style="opacity:1;vector-effect:none;fill:#90a8d8;fill-opacity:1;stroke:#000000;stroke-width:1.58749998;stroke-linecap:butt;stroke-linejoin:miter;stroke-miterlimit:4;stroke-dasharray:none;stroke-dashoffset:0;stroke-opacity:1"
         transform="matrix(1.1030096,0,0,1.1030096,-637.73068,76.7201)"
         id="g4695"
         inkscape:export-xdpi="499.92001"
         inkscape:export-ydpi="499.92001">
        <path
           sodipodi:nodetypes="ccccc"
           inkscape:connector-curvature="0"
           id="path4689"
           d="m 45.451638,156.45782 v 57.29292 l 49.318497,-28.47405 v -57.51553 z"
           style="vector-effect:none;fill:#90a8d8;fill-opacity:1;stroke:#000000;stroke-width:1.58749998;stroke-linecap:round;stroke-linejoin:round;stroke-miterlimit:4;stroke-dasharray:none;stroke-dashoffset:0;stroke-opacity:1" />
        <path
           style="vector-effect:none;fill:#90a8d8;fill-opacity:1;stroke:#000000;stroke-width:1.58749998;stroke-linecap:round;stroke-linejoin:round;stroke-miterlimit:4;stroke-dasharray:none;stroke-dashoffset:0;stroke-opacity:1"
           d="m 45.451638,156.45782 v 57.29292 L -3.866859,185.27669 v -57.51553 z"
           id="path4691"
           inkscape:connector-curvature="0"
           sodipodi:nodetypes="ccccc" />
        <path
           sodipodi:nodetypes="ccccc"
           inkscape:connector-curvature="0"
           id="path4693"
           d="M 94.770135,127.76116 45.451638,156.45782 -3.8668589,127.76116 45.451638,99.220548 Z"
           style="vector-effect:none;fill:#90a8d8;fill-opacity:1;stroke:#000000;stroke-width:1.58749998;stroke-linecap:round;stroke-linejoin:round;stroke-miterlimit:4;stroke-dasharray:none;stroke-dashoffset:0;stroke-opacity:1" />
      </g>
      <rect
         style="opacity:1;vector-effect:none;fill:none;fill-opacity:1;stroke:none;stroke-width:1.41293824;stroke-linecap:round;stroke-linejoin:round;stroke-miterlimit:4;stroke-dasharray:none;stroke-dashoffset:0;stroke-opacity:1"
         id="rect5777"
         width="281.65912"
         height="552.58508"
         x="-728.42657"
         y="95.064545"
         inkscape:export-xdpi="499.92001"
         inkscape:export-ydpi="499.92001" />
    </g>
  </g>
</svg>

<?xml version="1.0" encoding="UTF-8"?>
<svg version="1.1" viewBox="0 0 400 400" xmlns="http://www.w3.org/2000/svg">
 <g transform="translate(0 -652.36)">
  <g transform="matrix(1.7133 0 0 1.7133 460.05 236.12)">
   <g stroke="#000000" stroke-linecap="round" stroke-linejoin="round">
    <g stroke-width="1.5623">
     <path d="m-151.79 359.63v112.76l97.069-56.043v-113.2z" fill="#ddbc91"/>
     <path d="m-151.79 359.63v112.76l-97.068-56.043v-113.2z" fill="#d9b383"/>
     <path d="m-54.717 303.15-97.069 56.481-97.068-56.481 97.068-56.174z" fill="#ddbc91"/>
    </g>
    <g>
     <g transform="matrix(1.4761 0 0 1.4761 -218.88 128.54)" fill="#f3f4e4">
      <path transform="matrix(.40703 0 0 .40703 -35.955 75.176)" d="m78.834 129.19v141.3l121.17 69.955 121.17-69.955v-141.3l-121.17 70.502z" stroke-width="2.6001"/>
      <path d="m94.77 127.76-49.318 28.697-49.318-28.697 49.318-28.541z" stroke-width="1.0583"/>
     </g>
     <path d="m-151.79 275.01v84.491l-72.801 42.541v-84.901z" fill="#d9dbbc" stroke-width="1.5623"/>
     <path d="m-151.79 275.01v84.491l72.801 42.541v-84.901z" fill="#eaeccf" stroke-width="1.5623"/>
     <g transform="matrix(.9841 0 0 .9841 -196.51 205.66)" fill="#90a8d8" stroke-width="1.5875">
      <path d="m45.452 156.46v57.293l49.318-28.474v-57.516z"/>
      <path d="m45.452 156.46v57.293l-49.318-28.474v-57.516z"/>
      <path d="m94.77 127.76-49.318 28.697-49.318-28.697 49.318-28.541z"/>
     </g>
    </g>
   </g>
   <rect x="-728.43" y="95.065" width="281.66" height="552.59" fill="none"/>
  </g>
 </g>
</svg>
